X:209
T:Polska efter Abraham Hagholm
R:sl\"angpolska
A:\"Osterg\"otland
B:SvL \"Ogl 112, efter Abraham Hagholm, Godeg{\aa}rd
Z:id:hn-sp-209
M:3/4
L:1/16
K:Gm
{ABc}B4 BA^FA [G4G,4] | G2g2 g^faf d4 | d2=f2 fedc d2B2 |
BAG^F GFGD CB,A,G, | {ABc}B4 BA^FA [G4G,4] | G2g2 g^faf d4 |
d2=f2 fedc d2B2 | BA^FA A2G2 G4 :|
|: A2B2 cBAB cBAB | G2d2 d2cd edcB | A2B2 cBAB cBAB |
G2d2 d2cd edcB | G2g2 g^faf d4 | d2=f2 fedc d2B2 | BA^FA A2G2 G4 :|
|: BFBd BFBd edcB | AFAc AFAc dcBA | BFBd BFBd edcB |
AFAc AFAc dcBA | G^FGA BABc d4 | {=efg}f4 f_edc d2B2 | BA^FA A2G2 G4 :|

